tools/download-figma-icons/icons/solid/deadline.svg

<svg width="24" height="24" viewBox="0 0 24 24" fill="none" xmlns="http://www.w3.org/2000/svg">
<path fill-rule="evenodd" clip-rule="evenodd" d="M8.99991 10.125C8.99991 10.7474 9.5024 11.2499 10.1249 11.2499C10.7474 11.2499 11.2499 10.7474 11.2499 10.125C11.2499 9.50246 10.7474 8.99996 10.1249 8.99996C9.5024 8.99996 8.99991 9.50246 8.99991 10.125ZM2.99997 3.00002C2.17498 3.00002 1.49998 3.67502 1.49998 4.50001V5.99999H18.7498V4.50001C18.7498 3.67502 18.0748 3.00002 17.2498 3.00002H15.7378L15.7341 3.75376C15.7326 4.16701 15.3966 4.50001 14.9841 4.50001H14.9811C14.5664 4.49776 14.2326 4.16026 14.2341 3.74626L14.2379 3.00002H5.98794L5.98419 3.75376C5.98269 4.16701 5.64669 4.50001 5.2342 4.50001H5.2312C4.81645 4.49776 4.4827 4.16026 4.4842 3.74626L4.48795 3.00002H2.99997ZM4.87495 15.7499C5.49744 15.7499 5.99994 15.2474 5.99994 14.6249C5.99994 14.0024 5.49744 13.4999 4.87495 13.4999C4.25246 13.4999 3.74996 14.0024 3.74996 14.6249C3.74996 15.2474 4.25246 15.7499 4.87495 15.7499ZM3.74996 10.125C3.74996 10.7474 4.25246 11.2499 4.87495 11.2499C5.49744 11.2499 5.99994 10.7474 5.99994 10.125C5.99994 9.50246 5.49744 8.99996 4.87495 8.99996C4.25246 8.99996 3.74996 9.50246 3.74996 10.125ZM14.2499 10.1249C14.2499 10.5899 14.5349 10.9949 14.9398 11.1599C13.3124 11.8799 11.9999 13.1624 11.2349 14.7674C11.2499 14.7224 11.2499 14.6774 11.2499 14.6249C11.2499 14.0024 10.7474 13.4999 10.1249 13.4999C9.5024 13.4999 8.99991 14.0024 8.99991 14.6249C8.99991 15.2474 9.5024 15.7499 10.1249 15.7499C10.4774 15.7499 10.7924 15.5849 10.9949 15.3299C10.6724 16.1624 10.4999 17.0624 10.4999 17.9999C10.4999 18.2549 10.5149 18.5024 10.5374 18.7499C10.5599 19.0049 10.5974 19.2599 10.6499 19.4998H2.99997C1.34249 19.4998 0 18.1574 0 16.4999V5.99998V4.5C0 2.84252 1.34249 1.50003 2.99997 1.50003H4.4962L4.49995 0.746289C4.50295 0.331543 4.8607 -0.0029536 5.2537 4.63652e-05C5.66844 0.00229634 6.00219 0.339793 5.99994 0.753789L5.99619 1.50003H14.2461L14.2499 0.746289C14.2529 0.331543 14.5851 -0.0029536 15.0036 4.63652e-05C15.4183 0.00229634 15.7521 0.339793 15.7498 0.753789L15.7461 1.50003H17.2498C18.9073 1.50003 20.2498 2.84252 20.2498 4.5V5.99998V10.8449C20.0098 10.7699 19.7548 10.7024 19.4998 10.6499C19.2598 10.5974 19.0048 10.5599 18.7498 10.5374C18.5023 10.5149 18.2548 10.4999 17.9998 10.4999C17.4298 10.4999 16.8748 10.5674 16.3423 10.6874C16.4473 10.5224 16.4998 10.3349 16.4998 10.1249C16.4998 9.50245 15.9973 8.99995 15.3748 8.99995C14.7523 8.99995 14.2499 9.50245 14.2499 10.1249ZM17.4676 18.5325L17.6476 18.7125L18.255 19.32L18.9675 20.0325C19.1175 20.175 19.305 20.25 19.5 20.25C19.6943 20.25 19.8818 20.175 20.0325 20.0325C20.3243 19.74 20.3243 19.2592 20.0325 18.9675L19.5225 18.4575L18.99 17.925L18.75 17.685V15.75C18.75 15.3375 18.4125 15 18.0001 15C17.5876 15 17.2501 15.3375 17.2501 15.75V18C17.2501 18.06 17.2568 18.1275 17.2801 18.1875C17.2801 18.2222 17.2923 18.2505 17.3066 18.2836C17.3077 18.2863 17.3089 18.289 17.3101 18.2918C17.3476 18.3825 17.4001 18.465 17.4676 18.5325ZM19.5 12.1876C19.755 12.2551 20.0093 12.3451 20.25 12.4426C22.4468 13.3351 24 15.4875 24 18C24 21.3075 21.3075 23.9999 18.0001 23.9999C15.2101 23.9999 12.8626 22.0875 12.1876 19.5C12.1276 19.2592 12.0826 19.005 12.0444 18.75C12.0144 18.5025 12.0001 18.255 12.0001 18C12.0001 14.6925 14.6926 12.0001 18.0001 12.0001C18.255 12.0001 18.5025 12.0143 18.75 12.0443C19.005 12.0826 19.2593 12.1276 19.5 12.1876Z" fill="black"/>
</svg>

<svg xmlns="http://www.w3.org/2000/svg" width="24" height="24" fill="none" viewBox="0 0 24 24"><path fill="currentColor" fill-rule="evenodd" d="M9 10.125A1.124 1.124 0 1 0 10.125 9C9.502 9 9 9.502 9 10.125M3 3c-.825 0-1.5.675-1.5 1.5V6h17.25V4.5c0-.825-.675-1.5-1.5-1.5h-1.512l-.004.754a.75.75 0 0 1-.75.746h-.003a.75.75 0 0 1-.747-.754L14.238 3h-8.25l-.004.754a.75.75 0 0 1-.75.746h-.003a.75.75 0 0 1-.747-.754L4.488 3zm1.875 12.75a1.124 1.124 0 1 0 0-2.25c-.623 0-1.125.502-1.125 1.125 0 .622.502 1.125 1.125 1.125M3.75 10.125A1.124 1.124 0 1 0 4.875 9c-.623 0-1.125.502-1.125 1.125m10.5 0c0 .465.285.87.69 1.035a7.45 7.45 0 0 0-3.705 3.607.4.4 0 0 0 .015-.142c0-.623-.503-1.125-1.125-1.125-.623 0-1.125.502-1.125 1.125 0 .622.502 1.125 1.125 1.125.352 0 .667-.165.87-.42a7.4 7.4 0 0 0-.458 3.42c.023.255.06.51.113.75H3a3 3 0 0 1-3-3v-12a3 3 0 0 1 3-3h1.496L4.5.746A.764.764 0 0 1 5.254 0 .75.75 0 0 1 6 .754l-.004.746h8.25l.004-.754a.75.75 0 1 1 1.5.008l-.004.746h1.504a3 3 0 0 1 3 3v6.345a8 8 0 0 0-.75-.195 6 6 0 0 0-.75-.113 7.5 7.5 0 0 0-2.407.15q.156-.247.157-.562C16.5 9.502 15.997 9 15.375 9c-.623 0-1.125.502-1.125 1.125m3.218 8.407.18.18.607.608.713.712c.15.143.337.218.532.218a.77.77 0 0 0 .532-.218.757.757 0 0 0 0-1.064l-.51-.51-.532-.533-.24-.24V15.75A.75.75 0 0 0 18 15a.75.75 0 0 0-.75.75V18c0 .06.007.128.03.188 0 .034.012.063.027.096l.003.008c.038.09.09.173.158.24m2.032-6.344c.255.067.51.157.75.255A6 6 0 0 1 24 18c0 3.308-2.692 6-6 6-2.79 0-5.137-1.913-5.812-4.5a8 8 0 0 1-.144-.75 6.008 6.008 0 0 1 7.456-6.562" clip-rule="evenodd"/></svg>
